styles/images/sectionBGBottom.svg

<svg width="200" height="100" fill="none" xmlns="http://www.w3.org/2000/svg"><path fill="#2C6269" d="M100 100h100V0H100z"/><path fill-rule="evenodd" clip-rule="evenodd" d="M100 200C44.772 200 0 155.228 0 100S44.772 0 100 0s100 44.772 100 100-44.772 100-100 100Zm0-67c-18.225 0-33-14.775-33-33s14.775-33 33-33 33 14.775 33 33-14.775 33-33 33Z" fill="#012F34"/><path fill-rule="evenodd" clip-rule="evenodd" d="M100 56h100v4H100v-4Zm0 8h100v4H100v-4Zm100 8H100v4h100v-4Zm-100 8h100v4H100v-4Zm100 8H100v4h100v-4Zm-100 8h100v4H100v-4Z" fill="#79C8C7"/></svg>

<svg width="200" height="100" viewBox="0 0 200 100" fill="none" xmlns="http://www.w3.org/2000/svg">
<g id="Group 8">
<rect id="Rectangle" width="100" height="100" transform="matrix(1 0 0 -1 100 100)" fill="#2C6269"/>
<path id="Combined Shape Copy" fill-rule="evenodd" clip-rule="evenodd" d="M100 200C44.7715 200 0 155.228 0 100C0 44.7715 44.7715 0 100 0C155.228 0 200 44.7715 200 100C200 155.228 155.228 200 100 200ZM100 133C81.7746 133 67 118.225 67 100C67 81.7746 81.7746 67 100 67C118.225 67 133 81.7746 133 100C133 118.225 118.225 133 100 133Z" fill="#012F34"/>
<path id="Combined Shape" fill-rule="evenodd" clip-rule="evenodd" d="M100 56H200V60H100V56ZM100 64H200V68H100V64ZM200 72H100V76H200V72ZM100 80H200V84H100V80ZM200 88H100V92H200V88ZM100 96H200V100H100V96Z" fill="#79C8C7"/>
</g>
</svg>
